X: 174
T: Na Ceannabhain Bhana
R: slip jig
M: 9/8
L: 1/8
K: Gmaj
c|BAG AGE GED |EGD DEG A2 c|BGG AGE GED| EGD DEF G2 A :||
Bdd edd BAG |Bdd edB A2 c|Bdd edd BAG |GED DEF G3 c |
Bdd edd BGF | Bcd gdB A2 c | Bdd edd BAG | GED DEF G3 ||

